svg/pressure_alt.svg

<svg xmlns="http://www.w3.org/2000/svg" width="24" height="24" viewBox="0 0 24 24"><path d="M14 19v-1.27a8 8 0 1 0-4 0V19H2v3h20v-3zm-7.88-7.83a5.9 5.9 0 0 1 .34-3.47 6 6 0 1 1 7.84 7.84 5.9 5.9 0 0 1-3.47.34 6 6 0 0 1-4.71-4.71zM11 14.05a1.41 1.41 0 0 1-.5-1.05c.17-1.9 1.5-7.5 1.5-7.5s1.33 5.6 1.5 7.5a1.39 1.39 0 0 1-.45 1.05 1.45 1.45 0 0 1-2.05 0zM7 10h1v1H7zm9 0h1v1h-1zm0-2h-1V7h1zM8 7h1v1H8zm3-1h-1V5h1zm3 0h-1V5h1z"/><path fill="none" d="M0 0h24v24H0z"/></svg>

<svg xmlns="http://www.w3.org/2000/svg" width="24" height="24" viewBox="0 0 24 24"><path d="M14,19V17.73a8,8,0,1,0-4,0V19H2v3H22V19ZM6.12,11.17A5.9,5.9,0,0,1,6.46,7.7a6,6,0,1,1,7.84,7.84,5.9,5.9,0,0,1-3.47.34,6,6,0,0,1-4.71-4.71ZM11,14.05A1.41,1.41,0,0,1,10.5,13c.17-1.9,1.5-7.5,1.5-7.5s1.33,5.6,1.5,7.5a1.39,1.39,0,0,1-.45,1.05h0l0,0A1.45,1.45,0,0,1,11,14.05ZM7,10H8v1H7Zm9,0h1v1H16Zm0-2H15V7h1ZM8,7H9V8H8Zm3-1H10V5h1Zm3,0H13V5h1Z"/><rect width="24" height="24" fill="none"/></svg>
